X:289
T:B289-  Logan Water
Q:1/4=120
L:1/4
M:C
K:Gm
d|BA/G/ G3/2 B/|F/D/C/D/F2|BGG/B/(F/G/)|(B/A/)(B/c/)d2|\
ed/c/dc/B/|c/B/A/G/F3/2 B/|G/A/B/c/ (d/e/)(c/d/)|BA/G/G|]

